X:377
T:
R:polska
S:Efter »Florsen» i Burs.
O:Gotland, Burs
M:3/4
L:1/16
K:F
fefc AFAc c2f2|fefc AFAc c2f2|f2ga b2bg a2af|fefa gfed d2c2|
fefc AcAc c2f2|fefc AcAc c2f2|f2ga b2bg a2af|eceg g2f2 f4::
A2AB c2cA c2cA|BABc dBdB B2c2|A2AB c2cA c2cA|BABc d2dB c4|
fefc AcAc c2f2|fefc AcAc c2f2|f2ga b2bg a2af|eceg g2f2 f4:|

